icons/grain.svg

<svg width="16" height="16" viewBox="0 0 16 16" fill="none" xmlns="http://www.w3.org/2000/svg">
<path d="M8.03331 1.96521L5.88182 6.40765L8.04984 8.31626L10.1848 6.40765L8.03331 1.96521Z" fill="#F6A21F"/>
<path d="M2.00896 4.04413V9.51737L8.04964 14.6838L11.0948 12.0348L2.00896 4.04413Z" fill="#F68E27"/>
<path d="M13.991 9.5174V4.10419L8.56271 8.89216L11.6741 11.5247L13.991 9.5174Z" fill="#E18026"/>
</svg>

<svg xmlns="http://www.w3.org/2000/svg" width="16" height="16" fill="none"><path fill="#F6A21F" d="M8.033 1.965 5.882 6.408 8.05 8.316l2.135-1.908-2.152-4.443Z"/><path fill="#F68E27" d="M2.009 4.044v5.473l6.04 5.167 3.046-2.65-9.086-7.99Z"/><path fill="#E18026" d="M13.991 9.517V4.104L8.563 8.892l3.111 2.633 2.317-2.008Z"/></svg>
